icons/svg/seamark_big/topmark_vertical_black_cylinder_big.svg

<?xml version="1.0" encoding="UTF-8" standalone="no"?>
<svg
   xmlns:dc="http://purl.org/dc/elements/1.1/"
   xmlns:cc="http://creativecommons.org/ns#"
   xmlns:rdf="http://www.w3.org/1999/02/22-rdf-syntax-ns#"
   xmlns:svg="http://www.w3.org/2000/svg"
   xmlns="http://www.w3.org/2000/svg"
   xmlns:sodipodi="http://sodipodi.sourceforge.net/DTD/sodipodi-0.dtd"
   xmlns:inkscape="http://www.inkscape.org/namespaces/inkscape"
   width="1060"
   height="1060"
   id="svg2"
   version="1.1"
   inkscape:version="0.48.4 r9939"
   sodipodi:docname="topmark_vertical_black_conepointup_big.svg">
  <defs
     id="defs13">
    <inkscape:path-effect
       effect="gears"
       id="path-effect3774"
       is_visible="true"
       teeth="6"
       phi="-1.2" />
    <inkscape:path-effect
       effect="bend_path"
       id="path-effect3772"
       is_visible="false"
       bendpath="m 95.790098,316.51174 c 144.429032,-206.42506 223.313032,-11.7428 339.548092,0"
       prop_scale="1.19"
       scale_y_rel="false"
       vertical="false"
       bendpath-nodetypes="cc" />
  </defs>
  <sodipodi:namedview
     pagecolor="#ffffff"
     bordercolor="#666666"
     borderopacity="1"
     objecttolerance="10"
     gridtolerance="10"
     guidetolerance="10"
     inkscape:pageopacity="0"
     inkscape:pageshadow="2"
     inkscape:window-width="1920"
     inkscape:window-height="1004"
     id="namedview11"
     showgrid="false"
     inkscape:zoom="0.57543862"
     inkscape:cx="474.46372"
     inkscape:cy="774.27948"
     inkscape:window-x="1680"
     inkscape:window-y="0"
     inkscape:window-maximized="1"
     inkscape:current-layer="svg2" />
  <metadata
     id="metadata2975">image/svg+xmlen<rdf:RDF>
  <cc:Work
     rdf:about="">
    <dc:format>image/svg+xml</dc:format>
    <dc:type
       rdf:resource="http://purl.org/dc/dcmitype/StillImage" />
    <dc:title></dc:title>
  </cc:Work>
</rdf:RDF>
</metadata>
  <path
     style="font-size:medium;font-style:normal;font-variant:normal;font-weight:normal;font-stretch:normal;text-indent:0;text-align:start;text-decoration:none;line-height:normal;letter-spacing:normal;word-spacing:normal;text-transform:none;direction:ltr;block-progression:tb;writing-mode:lr-tb;text-anchor:start;baseline-shift:baseline;opacity:0.42608696;color:#000000;fill:#acd8f3;fill-opacity:1;fill-rule:nonzero;stroke:#a35151;stroke-width:0;stroke-linecap:round;stroke-linejoin:miter;stroke-miterlimit:4;stroke-opacity:1;stroke-dashoffset:0;marker:none;visibility:visible;display:inline;overflow:visible;enable-background:accumulate;font-family:Sans;-inkscape-font-specification:Sans"
     d="m 488.34375,59.992582 c -5.62096,-0.0017 -11.20793,2.311589 -15.18254,6.286205 -3.97462,3.974617 -6.28786,9.561589 -6.28621,15.182545 l 0,104.468748 c -0.002,5.62096 2.31159,11.20793 6.28621,15.18254 3.97461,3.97462 9.56158,6.28786 15.18254,6.28621 l 7.84375,0 0,301.75 c -0.002,5.62096 2.31159,11.20793 6.28621,15.18254 3.97461,3.97462 9.56158,6.28786 15.18254,6.28621 l 25,0 c 5.62096,0.002 11.20793,-2.31159 15.18254,-6.28621 3.97462,-3.97461 6.28786,-9.56158 6.28621,-15.18254 l 0,-301.75 7.53125,0 c 5.62096,0.002 11.20793,-2.31159 15.18254,-6.28621 3.97462,-3.97461 6.28786,-9.56158 6.28621,-15.18254 l 0,-104.468748 c 0.002,-5.620956 -2.31159,-11.207928 -6.28621,-15.182545 -3.97461,-3.974616 -9.56158,-6.287855 -15.18254,-6.286205 z"
     id="path4065"
     inkscape:connector-curvature="0"
     sodipodi:nodetypes="csccscccsccscccsccscc" />
  <path
     style="color:#000000;fill:none;stroke:#000000;stroke-width:25;stroke-linecap:butt;stroke-linejoin:miter;stroke-miterlimit:4;stroke-opacity:1;stroke-dasharray:none;stroke-dashoffset:0;marker:none;visibility:visible;display:inline;overflow:visible;enable-background:accumulate"
     d="m 530,510.66578 0,-383.25626"
     id="path3065-7"
     inkscape:connector-curvature="0"
     sodipodi:nodetypes="cc" />
  <rect
     style="color:#000000;fill:#000000;fill-opacity:1;fill-rule:nonzero;stroke:#a35151;stroke-width:0;stroke-linecap:round;stroke-linejoin:miter;stroke-miterlimit:4;stroke-opacity:1;stroke-dasharray:none;stroke-dashoffset:0;marker:none;visibility:visible;display:inline;overflow:visible;enable-background:accumulate"
     id="rect3987"
     width="83.324524"
     height="104.46352"
     x="488.33774"
     y="81.456619" />
</svg>

<svg width="1060" height="1060" viewBox="0 0 1060 1060" fill="none" xmlns="http://www.w3.org/2000/svg">
<path opacity="0.426087" d="M488.344 59.9927C482.723 59.991 477.136 62.3043 473.161 66.2789C469.187 70.2535 466.873 75.8405 466.875 81.4614V185.93C466.873 191.551 469.187 197.138 473.161 201.113C477.136 205.087 482.723 207.401 488.344 207.399H496.188V509.149C496.186 514.77 498.499 520.357 502.474 524.331C506.448 528.306 512.035 530.619 517.656 530.618H542.656C548.277 530.62 553.864 528.306 557.839 524.331C561.813 520.357 564.127 514.77 564.125 509.149V207.399H571.656C577.277 207.401 582.864 205.087 586.839 201.113C590.813 197.138 593.127 191.551 593.125 185.93V81.4614C593.127 75.8405 590.813 70.2535 586.839 66.2789C582.864 62.3043 577.277 59.991 571.656 59.9927H488.344Z" fill="#ACD8F3"/>
<path d="M530 510.666V127.41" stroke="black" stroke-width="25"/>
<path d="M571.662 81.4565H488.338V185.92H571.662V81.4565Z" fill="black"/>
</svg>
